Numix-GalliumOS/48/mimetypes/text-x-r.svg

<?xml version="1.0" encoding="UTF-8" standalone="no"?>
<svg
   xmlns:dc="http://purl.org/dc/elements/1.1/"
   xmlns:cc="http://creativecommons.org/ns#"
   xmlns:rdf="http://www.w3.org/1999/02/22-rdf-syntax-ns#"
   xmlns:svg="http://www.w3.org/2000/svg"
   xmlns="http://www.w3.org/2000/svg"
   xmlns:sodipodi="http://sodipodi.sourceforge.net/DTD/sodipodi-0.dtd"
   xmlns:inkscape="http://www.inkscape.org/namespaces/inkscape"
   width="48"
   viewBox="0 0 48 48"
   height="48"
   id="svg2"
   version="1.1"
   inkscape:version="0.91 r13725"
   sodipodi:docname="text-x-r-lines0.svg">
  <metadata
     id="metadata36">
    <rdf:RDF>
      <cc:Work
         rdf:about="">
        <dc:format>image/svg+xml</dc:format>
        <dc:type
           rdf:resource="http://purl.org/dc/dcmitype/StillImage" />
        <dc:title />
      </cc:Work>
    </rdf:RDF>
  </metadata>
  <defs
     id="defs34" />
  <sodipodi:namedview
     pagecolor="#ffffff"
     bordercolor="#666666"
     borderopacity="1"
     objecttolerance="10"
     gridtolerance="10"
     guidetolerance="10"
     inkscape:pageopacity="0"
     inkscape:pageshadow="2"
     inkscape:window-width="1366"
     inkscape:window-height="713"
     id="namedview32"
     showgrid="true"
     inkscape:zoom="22.627417"
     inkscape:cx="19.295679"
     inkscape:cy="19.236453"
     inkscape:window-x="0"
     inkscape:window-y="28"
     inkscape:window-maximized="1"
     inkscape:current-layer="svg2">
    <inkscape:grid
       type="xygrid"
       id="grid3346" />
  </sodipodi:namedview>
  <path
     style="fill:#98b3d0;fill-opacity:1"
     d="M 8,1 C 6.9714285,1 6,1.9714285 6,3 l 0,42 c 0,0.971429 1.0285714,2 2,2 l 32,0 c 0.971429,0 2,-1.028571 2,-2 L 42,14 29,1 z"
     id="path4" />
  <path
     style="fill-opacity:.196"
     d="M 29,12 29.0625,12.0625 29.21875,12 29,12 z m 2,2 11,11 0,-11 -11,0 z"
     id="path6" />
  <path
     style="fill:#fff;fill-opacity:.392"
     d="m 29,1 13,13 -11,0 c -0.971429,0 -2,-1.028571 -2,-2 L 29,1 z"
     id="path8" />
  <g
     style="fill:#fff;line-height:normal;color:#000"
     transform="matrix(.81817 0 0 .81817 4.36383 7.36392)"
     id="g10" />
  <g
     style="stroke:#fff;fill:none"
     id="g20">
    <g
       style="stroke-width:2"
       transform="matrix(.81817 0 0 .81817 4.36383 7.36392)"
       id="g22" />
    <g
       transform="matrix(.81817 0 0 .81817 4.36383 7.36392)"
       id="g28" />
  </g>
  <g
     id="g3342"
     transform="translate(1,0)">
    <path
       sodipodi:nodetypes="ssccsssccss"
       inkscape:connector-curvature="0"
       id="path59"
       d="m 23,19.003906 c -6.629,0 -12,3.582 -12,8 0,3.481616 3.341839,6.435794 8,7.535156 l 0,-2.65039 c -2.417463,-1.088051 -4,-2.868356 -4,-4.884766 0,-3.313 4.254,-6 9.5,-6 5.246,0 9.5,2.688 9.5,6 0,2.592172 -2.609832,4.7943 -6.255859,5.632813 0.293451,0.482501 0.586467,0.965217 0.876953,1.433593 C 32.414875,32.726307 35,30.067455 35,27.003906 c 0,-4.418 -5.371,-8 -12,-8 z"
       style="fill:#ffffff;fill-opacity:1;fill-rule:nonzero;stroke:none" />
    <path
       id="path63"
       d="M 20,23.004 20,38 l 3,0 0,-5 1,0 3,5 3,0 -3,-5 -0.219,-0.344 c 1.875,-0.719 3.215,-2.523 3.215,-4.656 0,-2.758 -2.238,-4.996 -5,-4.996 m -1.996,3 1.996,0 c 1.105,0 2,0.895 2,1.996 0,1.109 -0.898,2 -2,2 L 23,30 23,26 m 0,0.004"
       style="fill:#ffffff;fill-opacity:1;fill-rule:nonzero;stroke:none"
       inkscape:connector-curvature="0" />
  </g>
</svg>

<svg xmlns="http://www.w3.org/2000/svg" viewBox="0 0 48 48">
 <path d="m 8 1 c -1.029 0 -2 0.971 -2 2 l 0 42 c 0 0.971 1.029 2 2 2 l 32 0 c 0.971 0 2 -1.029 2 -2 l 0 -31 -13 -13 z" style="fill:#98b3d0;fill-opacity:1"/>
 <path d="m 29 12 0.063 0.063 0.156 -0.063 -0.219 0 z m 2 2 11 11 0 -11 -11 0 z" style="fill-opacity:0.196"/>
 <path d="m 29 1 13 13 -11 0 c -0.971 0 -2 -1.029 -2 -2 l 0 -11 z" style="fill:#fff;fill-opacity:0.392"/>
 <g transform="translate(1,0)">
  <path d="m 23 19 c -6.629 0 -12 3.582 -12 8 0 3.482 3.342 6.436 8 7.535 l 0 -2.65 c -2.417 -1.088 -4 -2.868 -4 -4.885 0 -3.313 4.254 -6 9.5 -6 5.246 0 9.5 2.688 9.5 6 0 2.592 -2.61 4.794 -6.256 5.633 0.293 0.483 0.586 0.965 0.877 1.434 c 3.794 -1.344 6.379 -4 6.379 -7.07 c 0 -4.418 -5.371 -8 -12 -8 z" style="fill:#fff;fill-opacity:1;stroke:none;fill-rule:nonzero"/>
  <path d="M 20,23.004 20,38 l 3,0 0,-5 1,0 3,5 3,0 -3,-5 -0.219,-0.344 c 1.875,-0.719 3.215,-2.523 3.215,-4.656 0,-2.758 -2.238,-4.996 -5,-4.996 m -1.996,3 1.996,0 c 1.105,0 2,0.895 2,1.996 0,1.109 -0.898,2 -2,2 L 23,30 23,26 m 0,0.004" style="fill:#fff;fill-opacity:1;stroke:none;fill-rule:nonzero"/>
 </g>
</svg>
